X:570
T: Carnaban
S: "Fiddlecase" (#57)
L: 1/8
M: 4/4
R: reel
K: G
G2 BG dGBG|F2 AF dFAF|G2 BG dGBG|cBAG FADF :|
(3Bcd gd BG G2|ABcd edBd|(3Bcd gd BG G2|cBAG FA D2|
(3Bcd gd BG G2|ABcd e3d|(Bcd gd BABd|cBAG FA (3DEF||
